X: 28813
T: My Old Aunt Sally
R: barndance
M: 4/4
K: Gmajor
D|"G"DGGB "D7"Adde|"D7"ddcA "G"ddzd|"D7"DGGB Adde|"D7"ddcA "G"G2 zD|
"G"DGGB "D7"Adde|"D7"ddcA "G"ddzd|"D7"DGGB Adde|"D7"ddcA "G"G2 z g||
"C"Gg"G7"de =fefd|"C"Gg"G7"de =f2eB|"F"Ac=fe f2df|"C"edce "G"d2BG|
"C"Gg"G"g^f g2dg|"C"edce "G"d2 BG|"F"=FAfe f2df|"C"edce "G"d2BG|
"C"Gg"F"=fd c2AF|"C"Gg"F"=fd c2AF|"G"GB"D7"Ac "G"Bdd2|"D7"ddcA "G"G2 z||

